material/.icons/material/file-eye.svg

<svg xmlns="http://www.w3.org/2000/svg" viewBox="0 0 24 24"><path d="M17 18c.56 0 1 .44 1 1s-.44 1-1 1-1-.44-1-1 .44-1 1-1m0-3c-2.73 0-5.06 1.66-6 4 .94 2.34 3.27 4 6 4s5.06-1.66 6-4c-.94-2.34-3.27-4-6-4m0 6.5a2.5 2.5 0 01-2.5-2.5 2.5 2.5 0 012.5-2.5 2.5 2.5 0 012.5 2.5 2.5 2.5 0 01-2.5 2.5m-7.86-1.75L8.85 19l.29-.74C10.43 15.06 13.5 13 17 13c1.05 0 2.06.21 3 .56V8l-6-6H6c-1.11 0-2 .89-2 2v16a2 2 0 002 2h4.5c-.55-.66-1-1.42-1.36-2.25M13 3.5L18.5 9H13V3.5z"/></svg>

<?xml version="1.0" encoding="UTF-8"?><!DOCTYPE svg PUBLIC "-//W3C//DTD SVG 1.1//EN" "http://www.w3.org/Graphics/SVG/1.1/DTD/svg11.dtd"><svg xmlns="http://www.w3.org/2000/svg" xmlns:xlink="http://www.w3.org/1999/xlink" version="1.1" id="mdi-file-eye" width="24" height="24" viewBox="0 0 24 24"><path d="M17,18C17.56,18 18,18.44 18,19C18,19.56 17.56,20 17,20C16.44,20 16,19.56 16,19C16,18.44 16.44,18 17,18M17,15C14.27,15 11.94,16.66 11,19C11.94,21.34 14.27,23 17,23C19.73,23 22.06,21.34 23,19C22.06,16.66 19.73,15 17,15M17,21.5A2.5,2.5 0 0,1 14.5,19A2.5,2.5 0 0,1 17,16.5A2.5,2.5 0 0,1 19.5,19A2.5,2.5 0 0,1 17,21.5M9.14,19.75L8.85,19L9.14,18.26C10.43,15.06 13.5,13 17,13C18.05,13 19.06,13.21 20,13.56V8L14,2H6C4.89,2 4,2.89 4,4V20A2,2 0 0,0 6,22H10.5C9.95,21.34 9.5,20.58 9.14,19.75M13,3.5L18.5,9H13V3.5Z" /></svg>
